X:140
T:Issu Issan
R:Waltz
O:Sweden
O:Finland
M:3/4
L:1/4
K:DDor
A|\
d2 d|d2 A|f2 f|f2 d|e2 e|efe|d2 d|1 d2A :|2def|:
a2a|agf|g2g|g2e|f2f|agf|e2e|1 efe :|2 e2 ||
